X: 1
T: The Rakes Of Kildare
R: jig
M: 6/8
L: 1/8
K: Ador
|:EAA AGA| Bcd e2f| g2g efg| dBA G2D|
EAA AGA|Bcd e2f|gfe dBG| ABA A3:|
aea aea| aea b2a|g2g efg|dBA G3|
[1 aea aea| aea b2a| gfe dBG|ABA A3:|
[2 EAA AGA| Bcd e2f|gfe dBG| ABA A3||


Tune 84	Setting 22215

